X: 2
T: The Glass Of Beer
R: reel
M: 4/4
L: 1/8
K: Emin
|BE E2 BEdE|BE E2 A2 GA|BE E2 B3A|GBdB A2 GA|
BE E2 BEdE|BE E2 A2 GA|BE E2 B3A|GBdB A2 BA||
G3A B3A|GABG AGED|G3A B3A|GBdB A2 BA|
G3A B3A|GABG AGED|G3A B3A|GBdB A2 GA||

